X: 4
T: The Skylark
R: reel
M: 4/4
L: 1/8
K: Dmaj
agfd e2dB|A~F3 DFAd|B~G3 EGAG|F~A3 F~A3|
agfd efdB|A~F3 DFAd|BGGF ~G2ag|faeg fed2:||
a2fd Adfd|~e3d c’~A3|a2fa bged|Beed efge|
~f3a ~g3e|~f2ef dBAG|F~A3 G2ag|faeg fedd:||


Tune 632	Setting 13656

